images/icons/Group.svg

<svg width="51" height="57" viewBox="0 0 51 57" fill="none" xmlns="http://www.w3.org/2000/svg">
<path d="M49.4295 24.3189C48.8546 23.5434 48.0109 23.0443 47.053 22.9098C46.0908 22.7733 45.1414 23.026 44.3734 23.6138L41.8699 25.5327L41.8688 25.5338L38.0734 28.368L35.3577 27.2864C40.2004 25.1136 43.585 20.2698 43.585 14.6462C43.585 7.00017 37.3396 0.779327 29.6627 0.779327C21.9858 0.779327 15.7405 7.00017 15.7405 14.6462C15.7405 17.4175 16.5692 19.9945 17.9805 22.163L12.4529 22.115C12.4497 22.115 12.4465 22.115 12.4433 22.115C12.4262 22.115 12.4124 22.1235 12.3964 22.1247C12.2908 22.1289 12.1873 22.1503 12.086 22.1865C12.0604 22.1962 12.0338 22.2015 12.0093 22.2132C11.9965 22.2185 11.9837 22.2195 11.9709 22.2259L5.50468 25.4185C5.50356 25.4185 5.50256 25.4185 5.50256 25.4195L1.71575 27.2405C1.67412 27.2586 1.6315 27.2831 1.58987 27.3109C0.0804746 28.3156 -0.433659 30.289 0.393104 31.9018C0.833611 32.7594 1.5835 33.391 2.50514 33.68C2.86039 33.7908 3.22302 33.8453 3.58353 33.8453C4.16279 33.8453 4.73667 33.7035 5.26243 33.423L8.03798 31.9467L12.566 29.6085L15.2797 29.5925L4.39629 40.4237C4.39529 40.4248 4.39417 40.4248 4.39304 40.4258L1.71563 43.0925C1.08312 43.7219 0.73536 44.557 0.73536 45.4478C0.73536 46.3374 1.08312 47.1747 1.71563 47.8052C2.36526 48.4516 3.21965 48.7758 4.07404 48.7758C4.92955 48.7758 5.78281 48.4516 6.43457 47.8052L9.06287 45.1875L12.5445 42.588L14.3462 44.3821L10.8229 47.8904C10.8219 47.8916 10.8208 47.8916 10.8196 47.8926L8.14223 50.5592C7.50972 51.1886 7.16196 52.0237 7.16196 52.9145C7.16196 53.8041 7.50972 54.6414 8.14223 55.2719C8.79186 55.9183 9.64738 56.2426 10.5018 56.2426C11.3562 56.2426 12.2117 55.9183 12.8623 55.2719L15.5407 52.6052L19.8255 48.3386C19.8267 48.3374 19.8267 48.3364 19.8277 48.3353L21.8469 46.3353L21.8394 46.3278C21.8522 46.315 21.8703 46.3106 21.8832 46.2969L32.2151 34.9805L39.1571 35.9682C39.2072 35.9757 39.2573 35.9789 39.3075 35.9789C39.4366 35.9789 39.5613 35.948 39.6819 35.9021C39.7171 35.8894 39.748 35.8722 39.7811 35.8552C39.8195 35.836 39.86 35.8254 39.8964 35.8009L46.3231 31.5342C46.3466 31.5182 46.3593 31.4925 46.3817 31.4755C46.4073 31.4553 46.4393 31.4468 46.4627 31.4243L49.0056 29.0424C50.3288 27.8026 50.5111 25.7717 49.4295 24.3189ZM4.26079 31.5403C3.91416 31.7259 3.52053 31.7632 3.14402 31.6438C2.77064 31.5275 2.46776 31.2725 2.29063 30.928C1.9685 30.3008 2.15513 29.537 2.71939 29.1243L5.34668 27.8602L5.97919 29.7088L6.24482 30.4853L4.26079 31.5403ZM11.255 27.8849L8.15848 29.4849L7.64759 27.9915L7.28071 26.9184L11.3342 24.9172L11.255 27.8849ZM41.4539 14.644C41.4539 16.4808 41.0155 18.2132 40.256 19.763L31.8932 15.9646C31.8057 14.8179 31.2106 13.8142 30.3167 13.189L33.2447 3.46837C38.0001 4.98102 41.4539 9.41733 41.4539 14.644ZM17.876 14.644C17.876 8.17456 23.1646 2.91049 29.6649 2.91049C30.1706 2.91049 30.6655 2.95311 31.1551 3.01499L28.291 12.5224C28.2527 12.5213 28.2164 12.5106 28.1769 12.5106C26.1118 12.5106 24.4317 14.1853 24.4317 16.2441C24.4317 18.3027 26.1118 19.9775 28.1769 19.9775C29.5657 19.9775 30.7657 19.2106 31.4132 18.0883L39.1381 21.5978C36.9887 24.4906 33.5486 26.3776 29.6648 26.3776C23.1646 26.3776 17.876 21.1135 17.876 14.644ZM29.7887 16.2441C29.7887 17.1262 29.0654 17.8441 28.1769 17.8441C27.2884 17.8441 26.5651 17.1262 26.5651 16.2441C26.5651 15.3619 27.2884 14.644 28.1769 14.644C29.0654 14.644 29.7887 15.3619 29.7887 16.2441ZM4.92968 46.2925C4.45717 46.7608 3.69228 46.7598 3.2209 46.2936C2.99365 46.0664 2.86889 45.7668 2.86889 45.4478C2.86889 45.1299 2.99365 44.8301 3.2209 44.6051L5.14505 42.6882L6.84746 44.3832L4.92968 46.2925ZM11.3574 53.7594C10.8849 54.2276 10.119 54.2288 9.6475 53.7605C9.42025 53.5333 9.29549 53.2336 9.29549 52.9146C9.29549 52.5967 9.42025 52.297 9.6475 52.072L11.5729 50.1541L12.3783 50.9552L13.2764 51.8491L11.3574 53.7594ZM18.3208 46.8217C18.3196 46.8227 18.3186 46.8227 18.3175 46.8238L14.7878 50.3438L13.9824 49.5427L13.0843 48.6488L16.6107 45.1384C16.6107 45.1384 16.6107 45.1384 16.6107 45.1374C16.6119 45.1363 16.6129 45.1363 16.614 45.1353C16.694 45.0553 16.7441 44.9593 16.7932 44.8644C16.8071 44.8366 16.8337 44.8131 16.8455 44.7844C16.8786 44.7023 16.8839 44.6138 16.8967 44.5272C16.9031 44.4781 16.9245 44.4324 16.9245 44.3821C16.9245 44.3106 16.8989 44.2414 16.884 44.1709C16.8712 44.1069 16.8712 44.0417 16.8466 43.98C16.8061 43.8797 16.7367 43.7912 16.6642 43.7047C16.644 43.6812 16.6365 43.6514 16.6141 43.629C16.6141 43.629 16.6141 43.629 16.613 43.629C16.6119 43.628 16.6119 43.6257 16.6109 43.6247L13.3969 40.4247C13.3628 40.3906 13.3191 40.3767 13.2807 40.3479C13.2242 40.3042 13.1698 40.2637 13.1068 40.2327C13.0461 40.2028 12.9842 40.1847 12.9202 40.1676C12.8519 40.1483 12.7858 40.1334 12.7143 40.1281C12.6492 40.1238 12.5884 40.1302 12.5234 40.1377C12.4519 40.1462 12.3848 40.1558 12.3154 40.1782C12.2482 40.1996 12.1885 40.2326 12.1267 40.2678C12.0872 40.2902 12.0424 40.2977 12.005 40.3254L8.45836 42.973L6.6567 41.1788L11.4547 36.4065L20.1759 44.9838L18.3208 46.8217ZM31.9584 32.7883C31.9275 32.7841 31.8986 32.7958 31.8677 32.7937C31.7898 32.7894 31.7152 32.7948 31.6373 32.8076C31.5766 32.8182 31.519 32.8299 31.4613 32.8502C31.3931 32.8737 31.3312 32.9057 31.2682 32.9441C31.2085 32.9803 31.1541 33.0187 31.1018 33.0667C31.0762 33.0891 31.0453 33.0998 31.0218 33.1253L21.6253 43.4167L12.9692 34.9035L18.6354 29.2671C19.0525 28.8511 19.0546 28.1759 18.6386 27.7577C18.4285 27.5476 18.1523 27.4441 17.876 27.4452V27.4442L13.4386 27.4709L13.4941 24.2559L19.7022 24.3093C22.2323 26.8971 25.7609 28.511 29.6649 28.511C30.5396 28.511 31.393 28.4204 32.2239 28.2656C32.3039 28.3296 32.3827 28.3948 32.4831 28.4353L37.3024 30.3553L37.6074 31.8721L37.9637 33.6427L31.9584 32.7883ZM40.0406 33.1446L39.4145 30.0288L42.3073 27.8687L43.0647 28.8735L44.2007 30.3818L40.0406 33.1446ZM47.5478 27.4826L45.8721 29.0528L44.0097 26.5802L45.6726 25.3056C45.9829 25.0667 46.3745 24.9696 46.7585 25.0197C47.1446 25.0741 47.486 25.2757 47.7185 25.5882C48.1516 26.1717 48.078 26.9856 47.5478 27.4826Z" fill="#2E2F42"/>
</svg>

<svg xmlns="http://www.w3.org/2000/svg" width="51" height="57" fill="none"><path fill="#2E2F42" d="M49.43 24.319a3.548 3.548 0 0 0-2.377-1.41 3.553 3.553 0 0 0-2.68.705l-2.503 1.919h-.001l-3.796 2.835-2.715-1.082c4.842-2.172 8.227-7.016 8.227-12.64C43.585 7 37.34.78 29.663.78 21.986.78 15.74 7 15.74 14.646c0 2.771.828 5.348 2.24 7.517l-5.528-.048h-.01c-.017 0-.03.009-.047.01-.105.004-.209.025-.31.061-.026.01-.052.015-.077.027-.013.005-.025.006-.038.013l-6.466 3.193h-.002l-3.787 1.822a.82.82 0 0 0-.126.07A3.56 3.56 0 0 0 .393 31.9c.44.858 1.19 1.49 2.112 1.779a3.558 3.558 0 0 0 2.757-.257l2.776-1.476 4.528-2.338 2.714-.017L4.396 40.425s-.002 0-.003.002l-2.677 2.666a3.298 3.298 0 0 0-.98 2.356c0 .89.347 1.727.98 2.357.65.647 1.504.97 2.358.97.856 0 1.709-.323 2.36-.97l2.629-2.617 3.481-2.6 1.802 1.794-3.523 3.508-.003.003-2.678 2.666a3.298 3.298 0 0 0-.98 2.355c0 .89.348 1.727.98 2.358.65.646 1.505.97 2.36.97.854 0 1.71-.324 2.36-.97l2.679-2.667 4.285-4.266c0-.002 0-.003.002-.004l2.019-2-.008-.007c.013-.013.031-.017.044-.031L32.215 34.98l6.942.987a1.052 1.052 0 0 0 .525-.066c.035-.013.066-.03.1-.047.038-.019.078-.03.114-.054l6.427-4.267c.024-.016.036-.041.059-.058.025-.02.057-.03.08-.052l2.544-2.382a3.558 3.558 0 0 0 .423-4.723ZM4.26 31.54c-.346.186-.74.223-1.116.104a1.43 1.43 0 0 1-.425-2.52l2.628-1.264.632 1.849.266.776L4.26 31.54Zm6.995-3.655-3.097 1.6-.51-1.494-.367-1.073 4.053-2-.079 2.967Zm30.199-13.241c0 1.837-.438 3.57-1.198 5.119l-8.363-3.798a3.722 3.722 0 0 0-1.576-2.776l2.928-9.72C38 4.98 41.454 9.416 41.454 14.643Zm-23.578 0c0-6.47 5.289-11.734 11.789-11.734.506 0 1 .043 1.49.105l-2.864 9.507c-.038 0-.075-.011-.114-.011a3.744 3.744 0 0 0-3.745 3.733 3.744 3.744 0 0 0 3.745 3.733c1.389 0 2.589-.766 3.236-1.889l7.725 3.51c-2.15 2.893-5.59 4.78-9.473 4.78-6.5 0-11.789-5.265-11.789-11.734Zm11.913 1.6c0 .882-.724 1.6-1.612 1.6a1.608 1.608 0 0 1-1.612-1.6c0-.882.723-1.6 1.612-1.6.888 0 1.612.718 1.612 1.6ZM4.929 46.292a1.217 1.217 0 0 1-1.708.002 1.187 1.187 0 0 1 0-1.689l1.924-1.917 1.702 1.695-1.917 1.91Zm6.428 7.467a1.216 1.216 0 0 1-1.71.002 1.188 1.188 0 0 1 0-1.689l1.926-1.918.805.801.898.894-1.919 1.91Zm6.964-6.937-.004.002-3.53 3.52-.805-.801-.898-.894 3.527-3.51v-.002s.002 0 .003-.002c.08-.08.13-.176.18-.27.013-.028.04-.052.052-.08.033-.083.038-.171.05-.258.007-.049.028-.095.028-.145 0-.071-.025-.14-.04-.211-.013-.064-.013-.13-.037-.191-.04-.1-.11-.189-.183-.275-.02-.024-.027-.054-.05-.076h-.001l-.002-.004-3.214-3.2c-.034-.034-.078-.048-.116-.077a1.026 1.026 0 0 0-.174-.115.99.99 0 0 0-.187-.065 1.024 1.024 0 0 0-.206-.04 1.035 1.035 0 0 0-.19.01 1.068 1.068 0 0 0-.209.04.987.987 0 0 0-.188.09c-.04.022-.085.03-.122.057l-3.547 2.648-1.801-1.794 4.798-4.773 8.72 8.578-1.854 1.838Zm13.637-14.034c-.03-.004-.06.008-.09.006a1.044 1.044 0 0 0-.23.014.983.983 0 0 0-.37.136c-.06.036-.114.075-.166.123-.026.022-.057.033-.08.058l-9.397 10.292-8.656-8.514 5.666-5.636a1.068 1.068 0 0 0-.759-1.822l-4.437.026.055-3.215 6.208.053a13.897 13.897 0 0 0 9.963 4.202c.875 0 1.728-.09 2.559-.245.08.064.159.129.26.17l4.818 1.92.305 1.516.357 1.77-6.006-.854Zm8.083.357-.627-3.116 2.893-2.16.758 1.005 1.136 1.508-4.16 2.763Zm7.507-5.662-1.676 1.57-1.862-2.473 1.663-1.274c.31-.24.701-.336 1.085-.286.387.054.728.256.96.568.434.584.36 1.398-.17 1.895Z"/></svg>
